X:1
T:Title
%%score 1 { 2 | ( 3 4 ) }
L:1/8
Q:1/4=114
M:6/4
K:F
V:1 treble nm="Akkordion"
V:2 treble nm="Grand Piano"
V:3 treble 
V:4 treble 
V:1
 c6- c4 d2 | d4 A2 A6 | c2 B2 ^F2 G4 C2 |[M:5/4] A2- A2- A6 |[M:1/4] A2 |[M:6/4] A4 E2 E2 F2 G2 | %6
w: Robert~Harkness * *||||||
 A4 D2 d6 | c2 e2 d2 A4 G2 | F12 |] %9
w: |||
V:2
 c2 c2 c2 c2 c2 d2 | d2 d2 c2 c2 c2 c2 | c2 c2 [EBc]2 [EBc]2 [Bc]2 [EBc]2 | %3
[M:5/4] [FAc]2 [FAe]2 [FAd]2 [FAc]2 [Ac]2 |[M:1/4] [FAc]2 | %5
[M:6/4] [^CGA]2 [GA]2 [CGA]2 [CGA]2 [CGA]2 [CGA]2 | [DFA]2 [FA]2 [DFA]2 [F_Ad]2 d2 d2 | %7
 c2 e2 d2 c2 [FA]2 [EG]2 | [CF]12 |] %9
V:3
 [FA]2 [FA]2 [FA]2 [FA]2 [FA]2 [DFA]2 | [FA]2 [FA]2 [A,FA]2 [FA]2 [FA]2 [FA]2 | %2
 [CEB]2 [B,EB]2[K:bass] ^F,2 z2 E2 C,2 |[M:5/4] A,2[K:treble] E2 D2 C2 F2 |[M:1/4] A,2 | %5
[M:6/4][K:bass] .A,6 z6 | z2 D2 D,2 z2[K:treble] [F_A]2 [FA]2 | %7
 [CFA]2 [EFA]2 [DFA]2 [CFA]2[K:bass] [C,C]2 [C,B,C]2 | [F,A,]12 |] %9
V:4
 C12 | .D6 A,6 | z6[K:bass] .G,6 |[M:5/4] x2[K:treble] x8 |[M:1/4] x2 | %5
[M:6/4][K:bass] z2 ^C2 E,2 E,2 F,2 G,2 | .A,6 =B,6[K:treble] | x8[K:bass] x4 | x12 |] %9

